dataset/deadbeef/icon.svg

<?xml version="1.0" encoding="UTF-8" standalone="no"?>
<svg
   height="128px"
   viewBox="0 0 128 128"
   width="128px"
   version="1.1"
   id="svg19"
   xml:space="preserve"
   xmlns:xlink="http://www.w3.org/1999/xlink"
   xmlns="http://www.w3.org/2000/svg"
   xmlns:svg="http://www.w3.org/2000/svg"><defs
     id="defs19"><linearGradient
       id="linearGradient11"
       gradientTransform="matrix(1.1999802,0,0,-1.1999802,181.47906,335.86367)"
       gradientUnits="userSpaceOnUse"
       x1="2.999997"
       x2="93.000366"
       y1="186.252045"
       y2="186.252045"><stop
         offset="0"
         stop-color="#456f2a"
         id="stop17"
         style="stop-color:#5e7a42;stop-opacity:1;" /><stop
         offset="0.06947768"
         stop-color="#456f2a"
         id="stop14"
         style="stop-color:#000000;stop-opacity:1;" /><stop
         offset="0.4387742"
         stop-color="#456f2a"
         id="stop12"
         style="stop-color:#000000;stop-opacity:1;" /><stop
         offset="0.5"
         stop-color="#5c913b"
         id="stop10"
         style="stop-color:#5e7a42;stop-opacity:1;" /><stop
         offset="0.56176525"
         stop-color="#5c913b"
         id="stop15"
         style="stop-color:#000000;stop-opacity:1;" /><stop
         offset="0.92762065"
         stop-color="#5c913b"
         id="stop16"
         style="stop-color:#000000;stop-opacity:1;" /><stop
         offset="1"
         stop-color="#5c913b"
         id="stop18"
         style="stop-color:#5e7a42;stop-opacity:1;" /></linearGradient><radialGradient
       id="Gradient_1-1"
       gradientUnits="userSpaceOnUse"
       cx="256"
       cy="128"
       r="256"
       gradientTransform="matrix(0.4354838,0,0,0.32661285,-47.483857,-7.6774243)"><stop
         offset="0"
         stop-color="#606060"
         id="stop1-6-94" /><stop
         offset="1"
         stop-color="#202020"
         id="stop2-2-7" /></radialGradient><linearGradient
       xlink:href="#linearGradient11"
       id="linearGradient1"
       x1="156"
       y1="82.000008"
       x2="264"
       y2="82.000008"
       gradientUnits="userSpaceOnUse"
       gradientTransform="translate(-146,-16.000012)" /></defs><linearGradient
     id="a"
     gradientTransform="matrix(1.1999802,0,0,-1.1999802,181.47906,335.86367)"
     gradientUnits="userSpaceOnUse"
     x1="2.999997"
     x2="93.000366"
     y1="186.252045"
     y2="186.252045"><stop
       offset="0.43"
       stop-color="#456f2a"
       id="stop1" /><stop
       offset="0.5"
       stop-color="#5c913b"
       id="stop2" /><stop
       offset="0.57"
       stop-color="#456f2a"
       id="stop3" /></linearGradient><path
     id="path2988-8-6"
     style="fill:url(#linearGradient1);stroke-width:0.210938"
     d="m 64,11.99999 c -13.03527,0 -48.48048,38.466705 -54,49.999999 0,0 0,3.53527 0,4.000002 C 10,79.499991 50.5,120 64,120 c 13.5,0 54,-40.500009 54,-54.000009 0,-0.301919 0,-4.000002 0,-4.000002 C 112.69455,50.386732 77.19808,11.99999 64,11.99999 Z" /><path
     d="m 63.999999,7.999993 c -2.612903,0 -7.82434,2.374039 -13.588406,6.430136 -5.764056,4.056314 -12.238616,9.666652 -18.276819,15.704635 -6.037976,6.038201 -11.648319,12.512757 -15.704628,18.276821 -4.056103,5.764065 -6.430141,10.9755 -6.430141,13.588403 0,2.612903 2.374038,7.824338 6.430141,13.588401 4.056309,5.764064 9.666652,12.238619 15.704628,18.276823 6.038203,6.037973 12.512763,11.648328 18.276819,15.704648 C 56.175659,113.62595 61.387096,116 63.999999,116 c 2.612903,0 7.82434,-2.37405 13.588406,-6.43014 C 83.352461,105.51355 89.82702,99.903185 95.865224,93.865212 101.9032,87.827008 107.51355,81.352453 111.56986,75.588389 115.62596,69.824326 118,64.612891 118,61.999988 118,59.387085 115.62596,54.17565 111.56986,48.411586 107.51355,42.647521 101.90319,36.172965 95.865224,30.134764 89.82702,24.096781 83.352461,18.486443 77.588405,14.430129 71.824339,10.374032 66.612902,7.999993 63.999999,7.999993 Z"
     fill="url(#Gradient_1)"
     id="path2988-1"
     style="fill:url(#Gradient_1-1);stroke-width:0.217742" /><path
     d="m 48.8125,28.249988 v 8.4375 25.3125 l 18.98437,-12.65625 18.98438,12.65625 -37.96875,25.3125 v 8.4375 l 50.625,-33.75 -25.3125,-16.875 z"
     fill="#abd582"
     id="path9-8-3"
     style="stroke-width:0.210938" /></svg>

<svg xmlns="http://www.w3.org/2000/svg" xmlns:xlink="http://www.w3.org/1999/xlink" xml:space="preserve" width="128" height="128" viewBox="0 0 128 128"><defs><linearGradient id="a" x1="3" x2="93" y1="186.252" y2="186.252" gradientTransform="matrix(1.19998 0 0 -1.19998 181.48 335.864)" gradientUnits="userSpaceOnUse"><stop offset="0" stop-color="#456f2a" style="stop-color:#5e7a42;stop-opacity:1"/><stop offset=".069" stop-color="#456f2a" style="stop-color:#000;stop-opacity:1"/><stop offset=".439" stop-color="#456f2a" style="stop-color:#000;stop-opacity:1"/><stop offset=".5" stop-color="#5c913b" style="stop-color:#5e7a42;stop-opacity:1"/><stop offset=".562" stop-color="#5c913b" style="stop-color:#000;stop-opacity:1"/><stop offset=".928" stop-color="#5c913b" style="stop-color:#000;stop-opacity:1"/><stop offset="1" stop-color="#5c913b" style="stop-color:#5e7a42;stop-opacity:1"/></linearGradient><linearGradient xlink:href="#a" id="b" x1="156" x2="264" y1="82" y2="82" gradientTransform="translate(-146 -16)" gradientUnits="userSpaceOnUse"/><radialGradient id="c" cx="256" cy="128" r="256" gradientTransform="matrix(.43548 0 0 .32661 -47.484 -7.677)" gradientUnits="userSpaceOnUse"><stop offset="0" stop-color="#606060"/><stop offset="1" stop-color="#202020"/></radialGradient></defs><path d="M64 12c-13.035 0-48.48 38.467-54 50v4c0 13.5 40.5 54 54 54s54-40.5 54-54v-4c-5.305-11.613-40.802-50-54-50" style="fill:url(#b);stroke-width:.210938"/><path fill="url(#Gradient_1)" d="M64 8c-2.613 0-7.824 2.374-13.588 6.43s-12.239 9.667-18.277 15.705S20.486 42.648 16.43 48.412 10 59.387 10 62s2.374 7.824 6.43 13.588 9.667 12.239 15.705 18.277 12.513 11.649 18.277 15.705S61.387 116 64 116s7.824-2.374 13.588-6.43 12.239-9.667 18.277-15.705 11.649-12.513 15.705-18.277S118 64.613 118 62s-2.374-7.824-6.43-13.588-9.667-12.239-15.705-18.277S83.352 18.486 77.588 14.43 66.613 8 64 8" style="fill:url(#c);stroke-width:.217742"/><path fill="#abd582" d="M48.813 28.25V62l18.984-12.656L86.78 62 48.812 87.312v8.438L99.439 62 74.125 45.125z" style="stroke-width:.210938"/></svg>
